findly-builder/apps/searchassist/src/assets/icons/content/database-Import.svg

<svg width="50" height="50" viewBox="0 0 50 50" fill="none" xmlns="http://www.w3.org/2000/svg">
<path d="M3.90625 12.5V35.1562C3.90625 39.4711 12.6508 42.9688 23.4375 42.9688C34.2242 42.9688 42.9688 39.4711 42.9688 35.1562L38.2203 27.4938L42.9688 25V12.5H3.90625Z" fill="#B893F2"/>
<path d="M9.375 12.5H3.90625V35.1562C3.90625 37.2609 5.99141 39.1703 9.375 40.575V12.5Z" fill="#F1E9FB"/>
<path d="M31.25 12.5V42.3172C38.1469 41.1109 42.9688 38.3594 42.9688 35.1562V12.5H31.25Z" fill="#F1E9FB"/>
<path d="M23.4375 3.90625C18.2575 3.90625 13.2896 4.72935 9.62682 6.19448C5.964 7.65961 3.90625 9.64675 3.90625 11.7188C3.90625 13.7908 5.964 15.7779 9.62682 17.243C13.2896 18.7081 18.2575 19.5312 23.4375 19.5312C28.6175 19.5312 33.5854 18.7081 37.2482 17.243C40.911 15.7779 42.9688 13.7908 42.9688 11.7188C42.9688 9.64675 40.911 7.65961 37.2482 6.19448C33.5854 4.72935 28.6175 3.90625 23.4375 3.90625Z" fill="#B893F2"/>
<path d="M49.2188 39.8438H37.5L40.625 42.9688L37.5 46.0938L28.9062 37.5L37.5 28.9062L40.625 32.0312L37.5 35.1562H49.2188V39.8438Z" fill="#FFDA2D"/>
<path d="M24.3018 7.82031C25.0393 7.83359 25.783 7.86562 26.5127 7.91484C26.5307 7.91641 26.5487 7.91641 26.5659 7.91641C26.9729 7.91641 27.3166 7.6 27.3448 7.1875C27.3737 6.75703 27.0479 6.38438 26.6174 6.35547C25.8627 6.30469 25.094 6.27187 24.3315 6.25781C24.326 6.25781 24.3213 6.25781 24.3166 6.25781C23.8916 6.25781 23.5432 6.59844 23.5354 7.02422C23.5276 7.45625 23.8713 7.8125 24.3018 7.82031ZM14.2057 8.82891C14.269 8.82891 14.333 8.82109 14.3963 8.80547C16.2768 8.33359 18.5229 8.01406 20.8908 7.88203C21.3221 7.85781 21.6518 7.48906 21.6268 7.05859C21.6033 6.62812 21.2276 6.29687 20.8033 6.32187C18.3377 6.45937 15.9901 6.79375 14.0158 7.28984C13.5971 7.39453 13.3432 7.81953 13.4479 8.2375C13.5377 8.59297 13.8557 8.82891 14.2057 8.82891ZM23.4377 32.8125C23.0057 32.8125 22.6565 33.1625 22.6565 33.5937V35.1562C22.6565 35.5875 23.0057 35.9375 23.4377 35.9375C23.8698 35.9375 24.219 35.5875 24.219 35.1562V33.5937C24.219 33.1625 23.8698 32.8125 23.4377 32.8125ZM28.1252 33.4375C28.1252 33.0063 27.776 32.6562 27.344 32.6562C26.9119 32.6562 26.5627 33.0063 26.5627 33.4375V35C26.5627 35.4313 26.9119 35.7812 27.344 35.7812C27.776 35.7812 28.1252 35.4313 28.1252 35V33.4375Z" fill="#7027E5"/>
<path d="M49.2188 34.375H43.75V11.7188C43.75 6.9 34.8273 3.125 23.4375 3.125C12.0477 3.125 3.125 6.9 3.125 11.7188V35.1562C3.125 39.9766 12.0469 43.75 23.4375 43.75C26.9375 43.75 30.2109 43.3906 33.0547 42.7578L36.9453 46.6484C37.1016 46.7969 37.2969 46.875 37.5 46.875C37.7031 46.875 37.8984 46.7969 38.0547 46.6484L41.1797 43.5234C41.4844 43.2188 41.4844 42.7188 41.1797 42.4141L39.3828 40.625H49.2188C49.6484 40.625 50 40.2734 50 39.8438V35.1562C50 34.7266 49.6484 34.375 49.2188 34.375ZM23.4375 4.6875C34.6531 4.6875 42.1875 8.32344 42.1875 11.7188C42.1875 15.1141 34.6531 18.75 23.4375 18.75C12.2219 18.75 4.6875 15.1141 4.6875 11.7188C4.6875 8.32344 12.2219 4.6875 23.4375 4.6875ZM4.6875 15.0844C7.725 18.1844 14.8852 20.3125 23.4375 20.3125C31.9898 20.3125 39.15 18.1844 42.1875 15.0844V19.5312C42.1875 22.9266 34.6531 26.5625 23.4375 26.5625C12.2219 26.5625 4.6875 22.9266 4.6875 19.5312V15.0844ZM31.75 41.4531C29.3125 41.9141 26.5078 42.1875 23.4375 42.1875C12.2188 42.1875 4.6875 38.5547 4.6875 35.1562V30.693C7.19766 33.2742 12.5609 35.2102 19.4188 35.7742C19.4406 35.7758 19.4625 35.7766 19.4836 35.7766C19.8867 35.7766 20.2281 35.4672 20.2617 35.0594C20.2969 34.6297 19.9773 34.2523 19.5469 34.2164C11.0758 33.5203 4.6875 30.5656 4.6875 27.3438V22.8969C7.725 25.9969 14.8852 28.125 23.4375 28.125C31.9898 28.125 39.15 25.9969 42.1875 22.8969V34.375H39.3828L41.1797 32.5859C41.4844 32.2812 41.4844 31.7812 41.1797 31.4766L38.0547 28.3516C37.75 28.0469 37.25 28.0469 36.9453 28.3516L32.0312 33.2656V32.8906C32.0312 32.4594 31.682 32.1094 31.25 32.1094C30.818 32.1094 30.4688 32.4594 30.4688 32.8906V34.4531C30.4688 34.5633 30.493 34.668 30.5336 34.7625L28.3516 36.9453C28.0469 37.25 28.0469 37.75 28.3516 38.0547L31.75 41.4531ZM48.4375 39.0625H37.5C37.1875 39.0625 36.8984 39.25 36.7812 39.5469C36.7109 39.7109 36.7031 39.8828 36.75 40.0469C36.7812 40.1797 36.8438 40.2969 36.9453 40.3984L39.5234 42.9688L37.5 44.9922L30.0078 37.5L37.5 30.0078L39.5234 32.0312L36.9453 34.6016C36.7266 34.8281 36.6562 35.1641 36.7812 35.4531C36.8984 35.75 37.1875 35.9375 37.5 35.9375H48.4375V39.0625Z" fill="#7027E5"/>
</svg>

<svg width="50" height="50" fill="none" xmlns="http://www.w3.org/2000/svg"><path d="M3.906 12.5v22.656c0 4.315 8.745 7.813 19.532 7.813 10.786 0 19.53-3.498 19.53-7.813l-4.748-7.662L42.97 25V12.5H3.906Z" fill="#B893F2"/><path d="M9.375 12.5H3.906v22.656c0 2.105 2.085 4.014 5.469 5.419V12.5Zm21.875 0v29.817c6.897-1.206 11.719-3.958 11.719-7.16V12.5H31.25Z" fill="#F1E9FB"/><path d="M23.438 3.906c-5.18 0-10.148.823-13.811 2.288-3.663 1.466-5.72 3.453-5.72 5.525 0 2.072 2.057 4.059 5.72 5.524 3.663 1.465 8.63 2.288 13.81 2.288s10.148-.823 13.811-2.288c3.663-1.465 5.72-3.452 5.72-5.524s-2.057-4.06-5.72-5.525c-3.663-1.465-8.63-2.288-13.81-2.288Z" fill="#B893F2"/><path d="M49.219 39.844H37.5l3.125 3.125-3.125 3.125-8.594-8.594 8.594-8.594 3.125 3.125-3.125 3.125h11.719v4.688Z" fill="#FFDA2D"/><path d="M24.302 7.82a45.049 45.049 0 0 1 2.264.096.782.782 0 0 0 .051-1.56 47.143 47.143 0 0 0-2.286-.098h-.014a.781.781 0 0 0-.015 1.562ZM14.206 8.83a.796.796 0 0 0 .19-.024c1.88-.471 4.127-.79 6.495-.923a.78.78 0 0 0 .736-.823.785.785 0 0 0-.824-.737c-2.465.137-4.813.472-6.787.968a.781.781 0 0 0 .19 1.539Zm9.232 23.983a.781.781 0 0 0-.781.782v1.562a.781.781 0 1 0 1.562 0v-1.562a.781.781 0 0 0-.781-.782Zm4.687.626a.781.781 0 1 0-1.562 0V35a.781.781 0 1 0 1.562 0v-1.563Z" fill="#7027E5"/><path d="M49.219 34.375H43.75V11.719c0-4.819-8.923-8.594-20.313-8.594-11.39 0-20.312 3.775-20.312 8.594v23.437c0 4.82 8.922 8.594 20.313 8.594 3.5 0 6.773-.36 9.617-.992l3.89 3.89a.8.8 0 0 0 .555.227.8.8 0 0 0 .555-.227l3.125-3.125a.787.787 0 0 0 0-1.109l-1.797-1.789h9.836c.43 0 .781-.352.781-.781v-4.688a.784.784 0 0 0-.781-.781ZM23.437 4.687c11.216 0 18.75 3.636 18.75 7.032 0 3.395-7.534 7.031-18.75 7.031-11.215 0-18.75-3.636-18.75-7.031 0-3.396 7.535-7.031 18.75-7.031ZM4.688 15.085c3.038 3.1 10.198 5.229 18.75 5.229 8.553 0 15.713-2.129 18.75-5.229v4.447c0 3.396-7.534 7.032-18.75 7.032-11.215 0-18.75-3.636-18.75-7.032v-4.447Zm27.063 26.37c-2.438.46-5.242.733-8.313.733-11.218 0-18.75-3.632-18.75-7.03v-4.464c2.51 2.581 7.874 4.517 14.732 5.081a.782.782 0 0 0 .128-1.558c-8.471-.696-14.86-3.65-14.86-6.872v-4.447c3.038 3.1 10.198 5.228 18.75 5.228 8.553 0 15.713-2.128 18.75-5.228v11.478h-2.804l1.797-1.79a.787.787 0 0 0 0-1.108l-3.125-3.125a.787.787 0 0 0-1.11 0l-4.914 4.914v-.375a.781.781 0 1 0-1.562 0v1.562c0 .11.024.215.065.31l-2.182 2.182a.787.787 0 0 0 0 1.11l3.398 3.398Zm16.688-2.392H37.5a.771.771 0 0 0-.719.485.737.737 0 0 0-.031.5c.031.133.094.25.195.351l2.578 2.57-2.023 2.024-7.492-7.492 7.492-7.492 2.023 2.023-2.578 2.57a.783.783 0 0 0-.164.852.771.771 0 0 0 .719.484h10.938v3.126Z" fill="#7027E5"/></svg>
